!!!SOCIAL_FUNCTION:	cheyenne war song
!!!PDT:	1936
!!!OTL: No_7_You_Are_Going_to_Be_a_Man.krn
!!!REG: Oklahoma and Montana
!!!LANG: Tone
!!!LING_GROUP: Algonquin
**kern
*staff1
=1-
*clefG2
*k[f#c#g#d#]
*M3/4
8.b\L
16ee\Jk
16b/LK
8.g#/J
8.g#/L
16f#/Jk
=2
8.f#/L
16g#/Jk
16f#/LK
8.e/J
8.e/L
16B/Jk
=3
8.B/L
16e/Jk
16e/LK
[8.e/J
8e/]
16r
16g#/
=4
8.g#/L
16b/Jk
16g#/LK
8.f#/J
8.f#/L
16e/Jk
=5
*M2/4
8.e/L
16e/Jk
16e/LK
8.B/J
=6
4B/
8.B/L
16B/Jk
=7
8B/
8r
8B/L
8B/J
=8
16b\LK
8b\
16b\Jk
8b\
8r
=9
*M3/8
16b\LK
8.b\
32ee\LK
16.b\JJ
=10
*M2/4
4g#/
8.g#/L
16f#/Jk
=11
*M3/4
8.f#/L
16g#/Jk
16f#/LK
8.e/J
8.e/L
16B/Jk
=12
8B/L
16e/L
16e/JJ
4.e/
16r
16g#/
=13
8.g#/L
16b/Jk
16g#/LK
8.f#/J
8.f#/L
16e/Jk
=14
*M2/4
8.e/L
16f#/Jk
16e/LK
8.B/J
=15
4B/
8.B/L
16B/Jk
=16
4B/
4r
==
*-
